!!!SOCIAL_FUNCTION:	war songs
!!!PDT:	1909
!!!OTL: No_162_The_Sky_Replies.krn
!!!REG: Great_Lakes
!!!LANG: Non-Tone
!!!LING_GROUP: Algonquin
**kern	**kern
*staff2	*staff1
=1-	=1-
*clefF4	*clefF4
*k[f#c#]	*k[f#c#]
*M2/4	*M2/4
2r	8B\L
.	8B\J
.	8B\L
.	8B\J
=2	=2
12GG^/	4B\
12r	.
12GG/	.
12GG^/	8F#\L
12r	.
.	8F#\J
12GG/	.
=3||	=3||
*M3/4	*M3/4
12GG^/	4B\
12r	.
12GG/	.
12GG^/	8B\L
12r	.
.	8B\J
12GG/	.
12GG^/	4B\
12r	.
12GG/	.
=4||	=4||
*M2/4	*M2/4
2r	8B\L
.	8c#\J
.	8c#\L
.	8B\J
=5	=5
2r	4F#\
.	4F#\
=6||	=6||
*M3/4	*M3/4
2.r	8E\L
.	8D\J
.	4E\
.	4E\
=7||	=7||
*M2/4	*M2/4
2r	8D/L
.	8BB/J
.	4D\
=8	=8
2r	4D\
.	4D\
=9	=9
2r	4F#\
.	8F#\L
.	8E\J
=10	=10
2r	4D\
.	4D\
=11	=11
2r	8BB/L
.	8BB/J
.	4BB/
=12||	=12||
*M3/4	*M3/4
2.r	2.BB/
=13	=13
2.r	8BB/L
.	8B/J
.	8B\L
.	8B\J
.	8B\L
.	8B\J
=14||	=14||
*M2/4	*M2/4
2r	4B\
.	4F#\
=15||	=15||
*M3/4	*M3/4
2.r	4B\
.	8B\L
.	8B\J
.	4B\
=16||	=16||
*M2/4	*M2/4
2r	8B\L
.	8c#\J
.	8c#\L
.	8B\J
=17	=17
2r	4F#\
.	4F#\
=18||	=18||
*M3/4	*M3/4
2.r	8E\L
.	8D\J
.	4E\
.	4E\
=19||	=19||
*M2/4	*M2/4
2r	8D/L
.	8BB/J
.	4D\
=20	=20
2r	4D\
.	4D\
=21	=21
2r	4F#\
.	8F#\L
.	8E\J
=22	=22
2r	4D\
.	4D\
=23	=23
2r	8BB/L
.	8BB/J
.	4BB/
=24	=24
2r	4.BB/
.	8BB/
=25	=25
2r	2BB/
==	==
*-	*-
